X:8
T:En mmoire du Seigneur - D304/1
C:J Glineau
M:C|
L:1/4
K:C
CD|:EEED|E2EF|GAGG|G2CD|EEED|E2EA|AGAB|B2AB |
c2BA|G2EE|A2GF|E2AB|c2BA|G2CE|E2DD|C2CD :|
